!!!COM: Haydn, Franz Joseph
!!!OTL: String Quartet in E-flat major
!!!OPS: Opus 1
!!!ONM: No. 2
!!!OMD: Adagio
!!!OMV: 3
!!!SCT: H III:2
!!!SCA: Thematisch-bibliographisches Werkevererzeichnis (A. van Hoboken)
!!!YOR: Bremner Edition, 1772
!!!ENC: Frances Bennion
!!!CDT: 1732/3/31/-1809/5/31/
!!!CNT: Oesterreich
!!!YEC: Copyright (c) 1994, 2000 Center for Computer Assisted Research in the Humanities
!!!YEM: Rights to all derivative editions reserved.
!!!YEM: Refer to licensing agreement for further details.
!!!YEN: United States of America
**kern	**kern	**kern	**kern
*k[b-e-]	*k[b-e-]	*k[b-e-]	*k[b-e-]
*B-:	*B-:	*B-:	*B-:
*clefF4	*clefC3	*clefF	*clefF
*M4/4	*M4/4	*M4/4	*M4/4
8B-	16r	16r	4bb-
.	16d	16f	.
8r	16d	16f	.
.	16d	16f	.
8BB-	16r	16r	8b-
.	16d	16f	.
8r	16d	16f	8dd
.	16d	16f	.
8F	16r	16r	[12..ff
.	16c	16a	.
8r	16c	16a	.
.	.	.	96ff]
.	.	.	32gg
.	16c	16a	32ff
.	.	.	32ee-
8BB-	16r	16r	8dd
.	16f	16b-	.
8r	16f	16b-	8r
.	16d	16b-	.
=2	=2	=2	=2
8E-	16r	16r	8gg
.	16B-	16g	.
8r	16B-	16g	4g
.	16B-	16g	.
8E-	16r	16r	.
.	16e-	16g	.
8r	16e-	16g	16ee-
.	16e-	16g	16cc
8F	16r	16r	[12..a
.	16c	16f	.
8r	16c	16f	.
.	.	.	96a]
.	.	.	32cc
.	16c	16f	32b-
.	.	.	32a
8BB-	16r	16r	4b-
.	16B-	16d	.
8r	16B-	16d	.
.	16B-	16d	.
=3	=3	=3	=3
8BB-	16r	16r	4ddd
.	16f	16b-	.
8r	16f	16b-	.
.	16f	16b-	.
8BB-	16r	16r	8bb-
.	16g	16b-	.
8r	16g	16b-	8gg
.	16g	16b-	.
8C	16r	16r	8.ee
.	16g	16b-	.
8r	16g	16b-	.
.	16g	16b-	16ff
8C	16r	16r	8gg
.	16e	16b-	.
8r	16e	16b-	8r
.	16e	16b-	.
=4	=4	=4	=4
8F	16r	16r	4ccc
.	16f	16a	.
8r	16f	16a	.
.	16f	16a	.
8F	16r	16r	8aa
.	16f	16cc	.
8r	16f	16cc	8ff
.	16f	16cc	.
8B-	16r	16r	8.dd
.	16f	16b-	.
8r	16f	16b-	.
.	16f	16b-	16ee-
8BB-	16r	16r	8ff
.	16d	16b-	.
8r	16d	16b-	8r
.	16d	16b-	.
=5	=5	=5	=5
8C	16r	16r	16ee
.	16e	16b-	16gg
8r	16e	16b-	16r
.	16e	16b-	32gg
.	.	.	32ee
8C	16r	16r	16bb-
.	16e	16b-	16gg
8r	16e	16b-	16r
.	16e	16b-	32gg
.	.	.	32ee
8C	16r	16r	16ff
.	16f	16a	16cc
8r	16g	16b-	16cc
.	16f	16a	16cc
8C	16g	16b-	16cc
.	16f	16a	16cc
8r	16g	16b-	16cc
.	16f	16a	16cc
=6	=6	=6	=6
8C	16r	16r	16cc
.	16f	16a	16ff
8r	16f	16a	16r
.	16f	16a	32aa
.	.	.	32ff
8C	16r	16r	16ccc
.	16f	16a	16aa
8r	16f	16a	16r
.	16f	16a	32aa
.	.	.	32ff
8C	16r	16r	16gg
.	16e	16g	16cc
8r	16f	16a	16cc
.	16e	16g	16cc
8C	16f	16a	16cc
.	16e	16g	16cc
8r	16f	16a	16cc
.	16e	16g	16cc
=7	=7	=7	=7
8C	16r	16r	16cc
.	16e	16b-	16gg
8r	16e	16b-	16r
.	16e	16b-	32gg
.	.	.	32ee
8C	16r	16r	16bb-
.	16e	16b-	16gg
8r	16e	16b-	16r
.	16e	16b-	32gg
.	.	.	32ee
8F	16r	16r	[2ff
.	16f	16a	.
8r	16b-	16dd	.
.	16a	16cc	.
8F	16b-	16dd	.
.	16a	16cc	.
8r	16g	16b-	.
.	16f	16a	.
=8	=8	=8	=8
8D	16r	16r	4ff]
.	16f	16a	.
8r	16f	16a	.
.	16f	16a	.
8AA	16r	16r	16ff
.	16f	16a	16aa
8r	16f	16a	16ccc
.	16f	16a	16fff
8BB-	16r	16r	8.ddd
.	16f	16g	.
8r	16f	16g	.
.	16f	16g	32ccc
.	.	.	32bb-
8C	16r	16r	8aa
.	16A	16f	.
8C	16r	16r	8gg
.	16B-	16e	.
=9	=9	=9	=9
4F	4A	8f	8ff
.	.	8.r	8.r
8c	8cc	.	.
.	.	16G	16e
8C	8c	16r	16r
.	.	16e	16b-
4F	4f	16f	16a
.	.	16A	16f
.	.	16A	16f
.	.	16A	16f
8c	8cc	16r	16r
.	.	16G	16e
8C	8c	16r	16r
.	.	16ee	16bb-
=10	=10	=10	=10
8F	8f	16r	16r
.	.	16ff	16aa
8d	8dd	16r	16r
.	.	16a	16ff
8B-	8b-	16r	16r
.	.	16b-	16gg
8c	8cc	16r	16r
.	.	16g	16ee
8F	8f	4f	4ff
8C	8c	.	.
4FF	4F	4r	4r
=11	=11	=11	=11
8.B-	8.b-	8.b-	8.b-
16F	16f	16f	16f
16.B-	16.b-	16.b-	16.b-
32F	32f	32f	32f
16.d	16.dd	16.dd	16.dd
32A	32a	32a	32a
8.B-	8.b-	8.b-	8.b-
16F	16f	16f	16f
16.B-	16.b-	16.b-	8b-
32F	32f	32f	.
16.D	16.d	16.d	8r
32BB-	32B-	32B-	.
=12	=12	=12	=12
8D	16B-	16B-	2aa-
.	16B-	16f	.
8r	16B-	16f	.
.	16B-	16f	.
8D	16r	16r	.
.	16B-	16f	.
8r	16B-	16f	.
.	16B-	16f	.
8E-	16r	16r	8.gg
.	16B-	16e-	.
8r	16B-	16e-	.
.	16A-	16e-	16aa-
8E-	16G	16r	8bb-
.	16g	16ee-	.
8r	16g	16ee-	16eee-
.	16g	16ee-	16bb-
=13	=13	=13	=13
8A-	16r	16r	8.ccc
.	16f	16ee-	.
8r	16f	16ee-	.
.	16f	16ee-	32bb-
.	.	.	32aa-
8B-	16r	16r	8gg
.	16e-	16ee-	.
8BB-	16r	16r	24aa-
.	.	.	24ff
.	16f	16dd	.
.	.	.	24dd
8E-	8e-	8ee-	8ee-
16r	16r	16r	16.r
16BB-	16B-	16B-	.
.	.	.	32B-
16.E-	16.e-	16.e-	16.e-
32BB-	32B-	32B-	32B-
16.G	16.g	16.g	16.g
32D	32d	32d	32d
=14	=14	=14	=14
8.E-	8.e-	8.e-	8.e-
16G	16g	16g	16g
16.A-	16.a-	16.a-	16.a-
32B-	32b-	32b-	32b-
16.c	16.cc	16.cc	16.cc
32d	32dd	32dd	32dd
8e-	16ee-	16ee-	2gg
.	16g	16cc	.
8r	16g	16cc	.
.	16g	16cc	.
8E-	16r	16r	.
.	16g	16cc#	.
8r	16g	16cc#	.
.	16g	16cc#	.
=15	=15	=15	=15
8D	16r	16r	8.ff#
.	16a	16dd	.
8r	16a	16dd	.
.	16a	16dd	16gg
8D	16r	16r	8.aa
.	16f#	16dd	.
8r	16f#	16dd	.
.	16a	16dd	32bb-
.	.	.	32ccc
8G	16r	16r	32bb-
.	.	.	32aa
.	16d	16b-	32gg
.	.	.	32aa
8r	16d	16b-	4gg
.	16d	16b-	.
8B-	16r	16r	.
.	16d-	16b-	.
8r	16d-	16b-	8ff
.	16d-	16b-	.
=16	=16	=16	=16
8c	16r	16r	8.ee
.	16c	16b-	.
8r	16c	16b-	.
.	16c	16b-	16ddd-
8E	16r	16r	8ddd-
.	16c	16b-	.
8r	16c	16b-	16ccc
.	16c	16g	16bb-
8F	16r	16r	16aa-
.	16c	16a-	16gg
8r	16c	16a-	16.ff
.	16c	16a-	.
.	.	.	32ccc
8D	16r	16r	8ccc
.	16B-	16a-	.
8r	16B-	16a-	16.bb-
.	16B-	16f	.
.	.	.	32aa-
=17	=17	=17	=17
8E-	16r	16r	16gg
.	16B-	16g	16ff
8r	16B-	16g	8ee-
.	16B-	16g	.
8e-	16r	16r	8gg 8b- 8e-
.	16g	16b-	.
8r	16g	16b-	16r
.	16g	16b-	32gg
.	.	.	32bb-
8d	16r	16r	16bb-
.	16f	16b-	16ff
8r	16f	16b-	16r
.	16f	16b-	32bb-
.	.	.	32dd
8c	16r	16r	16ff
.	16f	16b-	16ee-
8F	16r	16r	16r
.	16f	16a	32ccc
.	.	.	32ee-
=18	=18	=18	=18
8B-	16r	16r	16ee-
.	16f	16b-	16dd
8BB-	16f	16b-	16r
.	16d	16b-	32bb-
.	.	.	32ff
8E-	16r	16r	16gg
.	16c	16b-	16ee-
8E	16c	16b-	16cc
.	16c	16b-	16b-
4F	16c	16a	4f
.	16A	16f	.
.	16A	16f	.
.	16A	16f	.
16F	16A	16f	4r
16E-	16e-	16e-	.
16D	16d	16d	.
16C	16c	16c	.
=19	=19	=19	=19
8BB-	16B-	16B-	4bb-
.	16d	16f	.
8r	16d	16f	.
.	16d	16f	.
8BB-	16r	16r	8b-
.	16d	16f	.
8r	16d	16f	8dd
.	16d	16f	.
8F	16r	16r	[12..ff
.	16c	16a	.
8r	16c	16a	.
.	.	.	96ff]
.	.	.	32gg
.	16c	16a	32ff
.	.	.	32ee-
8BB-	16r	16r	4dd
.	16f	16b-	.
8r	16f	16b-	.
.	16f	16b-	.
=20	=20	=20	=20
8E-	16r	16r	4gg
.	16B-	16g	.
8r	16B-	16g	.
.	16B-	16g	.
8E-	16r	16r	8g
.	16e-	16g	.
8r	16e-	16g	16ee-
.	16e-	16g	16cc
8F	16r	16r	[12..a
.	16c	16e-	.
8r	16c	16e-	.
.	.	.	96a]
.	.	.	32cc
.	16c	16e-	32b-
.	.	.	32a
8BB-	16r	16r	4b-
.	16B-	16d	.
8r	16B-	16d	.
.	16B-	16d	.
=21	=21	=21	=21
8F	16r	16r	16a
.	16A	16e-	16cc
8r	16A	16e-	16r
.	16A	16e-	32cc
.	.	.	32a
8F	16r	16r	16ee-
.	16A	16e-	16cc
8r	16A	16e-	16r
.	16A	16e-	32cc
.	.	.	32a
8F	16r	16r	16b-
.	16B-	16d	16f
8r	16c	16e-	16f
.	16B-	16d	16f
8F	16c	16e-	16f
.	16B-	16d	16f
8r	16c	16e-	16f
.	16B-	16d	16f
=22	=22	=22	=22
8F	16r	16r	16f
.	16B-	16d	16b-
8r	16B-	16d	16r
.	16B-	16d	32dd
.	.	.	32b-
8F	16r	16r	16ff
.	16B-	16d	16dd
8r	16B-	16d	16r
.	16B-	16d	32dd
.	.	.	32b-
8F	16r	16r	16cc
.	16A	16c	16f
8r	16B-	16d	16f
.	16A	16c	16f
8F	16B-	16d	16f
.	16A	16c	16f
8r	16B-	16d	16f
.	16A	16c	16f
=23	=23	=23	=23
8F	16r	16r	16f
.	16A	16e-	16cc
8r	16A	16e-	16r
.	16A	16e-	32cc
.	.	.	32a
8F	16r	16r	16ee-
.	16a	16ee-	16cc
8r	16a	16ee-	16r
.	16a	16ee-	32ccc
.	.	.	32aa
8B-	16r	16r	[2bb-
.	16b-	16dd	.
8r	16ee-	16gg	.
.	16dd	16ff	.
8B-	16ee-	16gg	.
.	16dd	16ff	.
8r	16cc	16ee-	.
.	16b-	16dd	.
=24	=24	=24	=24
8G	16r	16r	4bb-_
.	16b-	16dd	.
8r	16b-	16dd	.
.	16b-	16dd	.
8D	16r	16r	32bb-]
.	.	.	32aa
.	16b-	16dd	32bb-
.	.	.	32ccc
8r	16b-	16dd	32ddd
.	.	.	32bb-
.	16b-	16dd	32aa
.	.	.	32bb-
8E-	16r	16r	8.gg
.	16b-	16cc	.
8r	16b-	16cc	.
.	16b-	16cc	32ff
.	.	.	32ee-
8F	16r	16r	8dd
.	16d	16b-	.
8F	16r	16r	8cc
.	16e-	16a	.
=25	=25	=25	=25
4BB-	4d	8b-	8b-
.	.	8.r	8.r
8F	8F	.	.
.	.	16e-	16cc
8FF	8f	16r	16r
.	.	16A	16e-
4BB-	16B-	16B-	16d
.	16D	16B-	16B-
.	16D	16B-	16B-
.	16D	16B-	16B-
8F	8f	16r	16r
.	.	16c	16a
8FF	8F	16r	16r
.	.	16a	16ee-
=26	=26	=26	=26
8BB-	8B-	16r	16r
.	.	16b-	16dd
8G	8g	16r	16r
.	.	16d	16b-
8E-	8e-	16r	16r
.	.	16e-	16cc
8F	8f	16r	16r
.	.	16c	16a
8BB-	8B-	4B-	4b-
8B-	8F	.	.
4BB-	4B-	4r	4r
==	==	==	==
*-	*-	*-	*-
!!!RWG1: This file contains only pitch and duration data.
!!!RWG2: Transposing instruments are not transposed.
!!!RWG3: Spines may have incompatible meters.
!!!RWG4: Durations of rests and tied notes may be interpreted.
!!!RWG: Key is interpreted using the Humdrum key tool.
!!!GTL: 10 Divertimentos
!!!AFT: stage1
!!!END: 1997/04/15
!!!KEY: 1917173025
!!!EMD: Converted from MuseData to Humdrum Dec 16, 2000, by Andreas Kornstaedt using muse2kern.
!!!EMD: Manual editing by Craig Sapp, Nov 2001
